X:81
T:Dublin
Z: id:dc-reel-74
M:C
L:1/8
K:G Major
ef|gBB2 gBaB|gBB2 dBAB|gBB2 gbag|fgef d2:|!
K:D Major
fg|add2 adbd|add2 edBd|add2 abag|fgef d2:|!
K:G Major
ef|g3f gdBd|g3d BGBd|g3f gbag|fgef d2:|!
BA|GBB2 GBAB|GBB2 dBAB|GBB2 GBag|fgef d2:|!

